uptopia/simple-reachability/bags/manip_ur5.csv
idx,x,y,z,j1,j2,j3,j4,j5,j6,icn,mm,msv,mscore
0
1, -1.11054, -2.39825, -1.84293, -1.84293, -2.39825, -1.11054, -2.02095, 0.46906, -1.58371, 0.0752232, 0.0504393, 0.154852, 0.0103828
2, 2.9173, 0.836812, -1.53627, -1.53627, 0.836812, 2.9173, -5.58106, 4.48874, -1.56894, 0.0159893, 0.00217723, 0.0281151, 0.0632698
3, 3.47874, -2.29772, -2.17016, -2.17016, -2.29772, 3.47874, -1.81337, -1.24277, -1.56802, 0.0249851, 0.00388807, 0.0458044, 0.0273323
4, -2.0318, -0.738738, 1.83692, 1.83692, -0.738738, -2.0318, -1.09403, -0.463352, 4.70834, 0.0234998, 0.00782402, 0.0477281, 0.0102569
5, -1.1095, -2.39984, -1.84221, -1.84221, -2.39984, -1.1095, -2.0326, 0.459371, 4.69819, 0.074695, 0.0494132, 0.153848, 0.0101691
6
7, -0.340737, -0.307348, 1.94667, 1.94667, -0.307348, -0.340737, -4.78727, 5.05895, -4.70121, 0.0298365, 0.0336877, 0.0552367, 0.0075507
8
9
10
11
12
13
14
15
16
17, -0.337464, -0.309622, 1.95101, 1.95101, -0.309622, -0.337464, 1.50501, -1.24007, 1.57073, 0.0295943, 0.0335258, 0.0547086, 0.00747816
18, -1.10934, -2.4061, -1.83242, -1.83242, -2.4061, -1.10934, -2.06725, 0.458464, 4.73175, 0.0749722, 0.0491782, 0.154304, 0.0101492
19, 1.63864, -2.3929, -1.87103, -1.87103, -2.3929, 1.63864, -1.91037, -3.07392, -1.46254, 0.000899318, 0.000227752, 0.00187668, 0.0359199
20
21
22, 1.63889, -2.39638, -1.85609, -1.85609, -2.39638, 1.63889, 4.30333, -3.06841, -1.5185, 0.000664977, 0.0001437, 0.00138789, 0.0359252
23, -1.11042, -2.4068, -1.82987, -1.82987, -2.4068, -1.11042, -2.06637, 0.469113, 4.73869, 0.0756413, 0.050255, 0.155544, 0.0103842
24, 3.47948, -2.83275, -1.94981, -1.94981, -2.83275, 3.47948, 1.63897, -5.04482, 1.56885, 0.0408986, 0.00873193, 0.0733071, 0.0359273
25, -2.03637, -2.97762, -1.17385, -1.17385, -2.97762, -2.03637, 1.02346, 0.465321, -4.73265, 0.072334, 0.025238, 0.144714, 0.0103004
26
27, -1.10479, 0.963238, -1.18732, -1.18732, 0.963238, -1.10479, -2.90657, -0.471824, 1.56578, 0.0751127, 0.04333, 0.154436, 0.0104438
28, 0.866445, -3.55833, 0.18704, 0.18704, -3.55833, 0.866445, 0.244327, -2.43976, -4.69224, 0.0702039, 0.0556051, 0.137875, 0.00541846
29, -0.523909, -3.36483, -0.222174, -0.222174, -3.36483, -0.523909, 0.434879, -1.05069, -4.69761, 0.0449542, 0.0530268, 0.0850002, 0.00962886
30, 3.66416, -0.241978, 0.674914, 0.674914, -0.241978, 3.66416, -0.433621, 5.24341, -1.57102, 0.00680729, 0.00147471, 0.0126668, 0.0096014
31, -2.03655, -2.58131, -1.39102, -1.39102, -2.58131, -2.03655, -2.29073, -0.466143, 4.68923, 0.0707948, 0.0226693, 0.143061, 0.0103184
32, -3.82839, -2.58429, -1.3774, -1.3774, -2.58429, -3.82839, 3.95137, -2.26586, 4.70036, 0.0295914, 0.00738148, 0.0571681, 0.0494098
33
34
35
36
37
38
39
40
41
42
43
44
45
46, -1.10963, -3.48505, 1.67679, 1.67679, -3.48505, -1.10963, -1.32817, -0.45986, 1.56874, 0.073805, 0.0318925, 0.154615, 0.01018
47
48, -2.80436, -1.64378, -1.98976, -1.98976, -1.64378, -2.80436, 0.483382, 1.24156, 1.56965, 0.0496509, 0.010779, 0.090532, 0.0106988
49, -4.64446, -1.812, -1.26719, -1.26719, -1.812, -4.64446, -3.20832, 3.20514, -1.57117, 0.0152581, 0.00275765, 0.0315936, 0.0680223
50, -1.10936, -3.59275, -0.840338, -0.840338, -3.59275, -1.10936, -1.83856, 0.459015, -1.58229, 0.0661387, 0.0238802, 0.137001, 0.0101613
51, -6.06002, -4.02027, 0.233917, 0.233917, -4.02027, -6.06002, 3.78533, -4.48334, 4.72115, 0.0190481, 0.0208723, 0.0363035, 0.0815021
52
53, 4.25105, 0.449234, 0.845293, 0.845293, 0.449234, 4.25105, -1.31482, -0.458994, 4.73683, 0.0828378, 0.0265941, 0.16862, 0.0101611
54
55, 5.17427, -3.48715, 1.68248, 1.68248, -3.48715, 5.17427, -1.34139, -0.453408, -4.7018, 0.0736626, 0.0313209, 0.154385, 0.0100378
56
57, 0.22271, -2.0982, -1.38201, -1.38201, -2.0982, 0.22271, 0.330399, 4.48055, 1.56673, 0.0200643, 0.00830914, 0.0366103, 0.00494015
58
59
60
61
62
63, 5.75985, -2.67238, -0.353886, -0.353886, -2.67238, 5.75985, -0.120661, -1.04649, 1.57241, 0.0439261, 0.0568289, 0.0844822, 0.0026788
64, -1.10451, -0.265478, -0.717851, -0.717851, -0.265478, -1.10451, 0.998951, 0.474977, 4.70268, 0.0827541, 0.0357126, 0.168274, 0.0105133
65, -2.61696, -0.466871, 0.349819, 0.349819, -0.466871, -2.61696, -3.01624, 1.05538, 1.55986, 0.00985043, 0.0021927, 0.0179795, 0.0232475
66
67
68
69
70
71
72
73
74
